X: 15594
T: Gneevgullia
R: reel
M: 4/4
K: Edorian
~E3F G2EF|GBAF GFdF|~E3 F GABc|dAAF AFE2:|
~e3d (3Bcd ef|geaf gfed|~e3d (3Bcd ef|(3gfe df e3 d|
~e3d (3Bcd ef|geaf gfef|~g3e ~f3d|~d3B ~A3F|
|:GBdg eged|A~D3 F4|B~E3 G3B|dAAF AFEF:|

